X: 14191
T: Phebe
T: Phoebe
C: by Mr Oswald
%R: waltz, minuet
B: James Oswald "The Caledonian Pocket Companion" v.1 b.4 p.19 #1 (top 7 staves continues from p.18)
S: https://ia800501.us.archive.org/18/items/caledonianpocket01rugg/caledonianpocket01rugg_bw.pdf
Z: 2020 John Chambers <jc:trillian.mit.edu>
M: 3/4
L: 1/8
K: Am
"_slow"cB |\
A2 A2 (c>d) | e2 e2 (ag) | e2 (g<e) (d<c) | d4 (ed) |\
(c<A) A2 (c>d) | e2 e2 a>g | e2 (d<B) c>^G | A4 :|
|: e>d |\
c3 d (c/d/e) | d2 e2 g2 | (a>g) Tg>f Tf>e | {e}d4 (e>g) |\
a2 (a/g/e) (d/e/g) | e3 d (c/d/e) | {d}c2 A2 G2 | E4 (c>d) |
e2 e2 f>e | {e}d2 d2 (d/e/f) | e2 (dc)(BA) | {A2}B4 Tc>B |\
A2 A2 c>d | e2 e2 a>g | e2 (d<B) (c^G) | A4 :|
